X: 1
T:Katie Farrell's
R:Double Jig
C:Larry Mallette
H:submitted by Larry Mallette to the Great '94 IRTRAD Milwaukee Tune Swap
N:Written November 1993. Dedicated to the memory of an elegant lady who loved music.
Z:A: Irish id:ng-jigs-2
E:8
I:speed 350
M:6/8
K:D
BGE EGB|AFD DFA|BGE EGB|e2f gfe|\
dBG DGB|AFD DFA|B2A Bcd|1efg ~e3:|2efg e2d::\
e2f edB|GAB AFD|E2F GAB|c=BA B2d|\
e2f edB|GAB AFD|1E2F G2B|AFD E2d:|2GFE AGF|BFD E3:|**
